img/insta.svg

<svg width="25" height="24" viewBox="0 0 25 24" fill="none" xmlns="http://www.w3.org/2000/svg">
<path d="M12.5018 5.84768C9.09683 5.84768 6.34883 8.59568 6.34883 12.0007C6.34883 15.4057 9.09683 18.1537 12.5018 18.1537C15.9068 18.1537 18.6548 15.4057 18.6548 12.0007C18.6548 8.59568 15.9068 5.84768 12.5018 5.84768ZM12.5018 15.9997C10.2998 15.9997 8.50283 14.2027 8.50283 12.0007C8.50283 9.79868 10.2998 8.00168 12.5018 8.00168C14.7038 8.00168 16.5008 9.79868 16.5008 12.0007C16.5008 14.2027 14.7038 15.9997 12.5018 15.9997ZM18.9068 4.16168C18.1118 4.16168 17.4698 4.80368 17.4698 5.59868C17.4698 6.39368 18.1118 7.03568 18.9068 7.03568C19.7018 7.03568 20.3438 6.39668 20.3438 5.59868C20.3441 5.4099 20.3071 5.22294 20.2349 5.04848C20.1628 4.87403 20.057 4.71553 19.9235 4.58204C19.79 4.44855 19.6315 4.34272 19.457 4.27058C19.2826 4.19845 19.0956 4.16144 18.9068 4.16168ZM24.4958 12.0007C24.4958 10.3447 24.5108 8.70368 24.4178 7.05068C24.3248 5.13068 23.8868 3.42668 22.4828 2.02268C21.0758 0.615681 19.3748 0.180681 17.4548 0.0876813C15.7988 -0.00531865 14.1578 0.00968139 12.5048 0.00968139C10.8488 0.00968139 9.20783 -0.00531865 7.55483 0.0876813C5.63483 0.180681 3.93083 0.618681 2.52683 2.02268C1.11983 3.42968 0.684832 5.13068 0.591832 7.05068C0.498832 8.70668 0.513832 10.3477 0.513832 12.0007C0.513832 13.6537 0.498832 15.2977 0.591832 16.9507C0.684832 18.8707 1.12283 20.5747 2.52683 21.9787C3.93383 23.3857 5.63483 23.8207 7.55483 23.9137C9.21083 24.0067 10.8518 23.9917 12.5048 23.9917C14.1608 23.9917 15.8018 24.0067 17.4548 23.9137C19.3748 23.8207 21.0788 23.3827 22.4828 21.9787C23.8898 20.5717 24.3248 18.8707 24.4178 16.9507C24.5138 15.2977 24.4958 13.6567 24.4958 12.0007ZM21.8558 19.0747C21.6368 19.6207 21.3728 20.0287 20.9498 20.4487C20.5268 20.8717 20.1218 21.1357 19.5758 21.3547C17.9978 21.9817 14.2508 21.8407 12.5018 21.8407C10.7528 21.8407 7.00283 21.9817 5.42483 21.3577C4.87883 21.1387 4.47083 20.8747 4.05083 20.4517C3.62783 20.0287 3.36383 19.6237 3.14483 19.0777C2.52083 17.4967 2.66183 13.7497 2.66183 12.0007C2.66183 10.2517 2.52083 6.50168 3.14483 4.92368C3.36383 4.37768 3.62783 3.96968 4.05083 3.54968C4.47383 3.12968 4.87883 2.86268 5.42483 2.64368C7.00283 2.01968 10.7528 2.16068 12.5018 2.16068C14.2508 2.16068 18.0008 2.01968 19.5788 2.64368C20.1248 2.86268 20.5328 3.12668 20.9528 3.54968C21.3758 3.97268 21.6398 4.37768 21.8588 4.92368C22.4828 6.50168 22.3418 10.2517 22.3418 12.0007C22.3418 13.7497 22.4828 17.4967 21.8558 19.0747Z" fill="#E61F5A"/>
</svg>

<svg width="25" height="24" fill="none" xmlns="http://www.w3.org/2000/svg"><path d="M12.502 5.848A6.144 6.144 0 0 0 6.349 12a6.144 6.144 0 0 0 6.153 6.153A6.144 6.144 0 0 0 18.655 12a6.144 6.144 0 0 0-6.153-6.153Zm0 10.152a4.007 4.007 0 0 1-4-4 4.007 4.007 0 0 1 4-3.998A4.007 4.007 0 0 1 16.5 12a4.007 4.007 0 0 1-4 3.999Zm6.405-11.838c-.795 0-1.437.642-1.437 1.437s.642 1.437 1.437 1.437a1.433 1.433 0 0 0 1.328-1.988 1.434 1.434 0 0 0-1.328-.886ZM24.496 12c0-1.656.015-3.297-.078-4.95-.093-1.92-.531-3.624-1.935-5.028C21.076.616 19.375.18 17.455.088 15.799-.005 14.158.01 12.505.01c-1.656 0-3.297-.015-4.95.078-1.92.093-3.624.53-5.028 1.935C1.12 3.43.685 5.13.592 7.05.499 8.707.514 10.348.514 12s-.015 3.297.078 4.95c.093 1.92.53 3.624 1.935 5.028 1.407 1.407 3.108 1.842 5.028 1.935 1.656.093 3.297.078 4.95.078 1.656 0 3.297.015 4.95-.078 1.92-.093 3.624-.531 5.028-1.935 1.407-1.407 1.842-3.108 1.935-5.028.096-1.653.078-3.294.078-4.95Zm-2.64 7.074a3.812 3.812 0 0 1-.906 1.374 3.838 3.838 0 0 1-1.374.906c-1.578.627-5.325.486-7.074.486-1.75 0-5.5.14-7.077-.483a3.812 3.812 0 0 1-1.374-.906 3.838 3.838 0 0 1-.906-1.374C2.52 17.497 2.662 13.75 2.662 12c0-1.75-.141-5.5.483-7.077.219-.546.483-.954.906-1.374.423-.42.828-.687 1.374-.906 1.578-.624 5.328-.483 7.077-.483 1.749 0 5.499-.141 7.077.483.546.219.954.483 1.374.906.423.423.687.828.906 1.374.624 1.578.483 5.328.483 7.077 0 1.749.14 5.496-.486 7.074Z" fill="#E61F5A"/></svg>
